icons/money-euros.svg

<svg width="24" height="24" viewBox="0 0 24 24" fill="none" xmlns="http://www.w3.org/2000/svg">
<path fill-rule="evenodd" clip-rule="evenodd" d="M10.1575 4.65219C11.4271 4.01739 12.8397 3.83804 14.2088 4.14913C15.5748 4.45954 16.8059 5.23675 17.7599 6.34897C18.1195 6.76817 18.0711 7.39949 17.6519 7.75905C17.2327 8.11862 16.6014 8.07028 16.2418 7.65107C15.5409 6.83395 14.6753 6.30612 13.7656 6.09942C12.859 5.8934 11.9183 6.00789 11.052 6.44104C10.1817 6.87619 9.41062 7.6222 8.85706 8.61346C8.78672 8.7394 8.72045 8.86836 8.65833 9.00002H13C13.5523 9.00002 14 9.44773 14 10C14 10.5523 13.5523 11 13 11H8.06953C8.02411 11.3283 8.00085 11.6627 8.00085 12C8.00085 12.3373 8.02411 12.6717 8.06953 13H13C13.5523 13 14 13.4477 14 14C14 14.5523 13.5523 15 13 15H8.65833C8.72045 15.1317 8.78672 15.2606 8.85706 15.3866C9.41062 16.3778 10.1817 17.1238 11.052 17.559C11.9183 17.9921 12.859 18.1066 13.7656 17.9006C14.6753 17.6939 15.5409 17.1661 16.2418 16.349C16.6014 15.9298 17.2327 15.8814 17.6519 16.241C18.0711 16.6005 18.1195 17.2319 17.7599 17.6511C16.8059 18.7633 15.5748 19.5405 14.2088 19.8509C12.8397 20.162 11.4271 19.9826 10.1575 19.3478C8.89191 18.715 7.83956 17.6665 7.11089 16.3617C6.86919 15.9289 6.66567 15.4727 6.50161 15H5C4.44772 15 4 14.5523 4 14C4 13.4477 4.44772 13 5 13H6.05467C6.01891 12.6691 6.00085 12.3351 6.00085 12C6.00085 11.6649 6.01891 11.3309 6.05467 11H5C4.44772 11 4 10.5523 4 10C4 9.44773 4.44772 9.00002 5 9.00002H6.50161C6.66567 8.52732 6.86919 8.07113 7.11089 7.63832C7.83955 6.33351 8.89191 5.285 10.1575 4.65219Z" fill="black"/>
</svg>

<svg
  width="24"
  height="24"
  viewBox="0 0 24 24"
  xmlns="http://www.w3.org/2000/svg"
>
  <path
    fill-rule="evenodd"
    clip-rule="evenodd"
    d="M10.158 4.652a6.02 6.02 0 0 1 4.05-.503c1.367.31 2.598 1.088 3.552 2.2a1 1 0 1 1-1.518 1.302c-.701-.817-1.567-1.345-2.476-1.552a4.02 4.02 0 0 0-2.714.342c-.87.435-1.641 1.181-2.195 2.172-.07.126-.137.255-.199.387H13a1 1 0 1 1 0 2H8.07a7.3 7.3 0 0 0 0 2H13a1 1 0 1 1 0 2H8.658c.062.132.129.26.2.387.553.99 1.324 1.737 2.194 2.172a4.02 4.02 0 0 0 2.714.342c.91-.207 1.775-.735 2.476-1.552a1 1 0 1 1 1.518 1.302c-.954 1.112-2.185 1.89-3.551 2.2a6.02 6.02 0 0 1-4.051-.503c-1.266-.633-2.318-1.681-3.047-2.986A8.527 8.527 0 0 1 6.5 15H5a1 1 0 1 1 0-2h1.055a9.31 9.31 0 0 1 0-2H5a1 1 0 1 1 0-2h1.502c.164-.473.367-.929.609-1.362.729-1.304 1.78-2.353 3.047-2.986z"
  />
</svg>
